symbols/web/compost/materialsymbolsrounded/compost_wght100grad200_24px.svg

<svg xmlns="http://www.w3.org/2000/svg" height="24" width="24"><path d="M12 20.975q-1.85 0-3.512-.712-1.663-.713-2.875-1.926-1.213-1.212-1.925-2.875-.713-1.662-.713-3.512t.713-3.512Q4.4 6.775 5.613 5.562 6.825 4.35 8.488 3.637 10.15 2.925 12 2.925V1.9q0-.35.325-.525.325-.175.6.1l2.5 2.5q.175.175.175.375t-.175.375l-2.5 2.5q-.275.275-.6.1Q12 7.15 12 6.8V5.775q-2.55 0-4.362 1.812Q5.825 9.4 5.825 11.95q0 1.575.712 2.9.713 1.325 1.963 2.175.35-.65 1.113-1.113.762-.462 1.737-.587-.1-.5-.213-1-.112-.5-.262-.925-.25.225-.575.338-.325.112-.675.112-.775 0-1.338-.563-.562-.562-.562-1.337V11q0-.3-.062-.538Q7.6 10.225 7.5 10q-.125-.275-.088-.375.038-.1.238-.075.35.025 1.013.1.662.075 1.287.338.625.262 1.088.712.462.45.487 1.25 0 .25-.037.425-.038.175-.138.35-.3-.225-.6-.425-.3-.2-.65-.35.425.325.938.962.512.638.962 1.513.5-1.175 1.2-2.3.7-1.125 1.65-2.075-.525.375-1.038.8-.512.425-.987.925-.15-.275-.25-.587-.1-.313-.1-.663 0-.975.7-1.675.7-.7 1.675-.7h.95q.625 0 .988-.113.362-.112.562-.412.125-.2.25-.238.125-.037.125.238 0 .575-.062 1.462-.063.888-.338 1.738t-.837 1.462q-.563.613-1.638.613-.35 0-.662-.1-.313-.1-.588-.25-.175.45-.375 1.175-.2.725-.325 1.6.875.175 1.563.625.687.45 1.037 1.075 1.1-.775 1.812-1.95.713-1.175.838-2.575.025-.25.175-.4.15-.15.4-.15h1.75q.25 0 .388.15.137.15.112.4-.075 1.775-.825 3.312-.75 1.538-1.962 2.688-1.213 1.15-2.8 1.812-1.588.663-3.388.663Z"/></svg>

<svg xmlns="http://www.w3.org/2000/svg" height="24" width="24"><path d="M12 20.975Q10.15 20.975 8.488 20.263Q6.825 19.55 5.613 18.337Q4.4 17.125 3.688 15.462Q2.975 13.8 2.975 11.95Q2.975 10.1 3.688 8.438Q4.4 6.775 5.613 5.562Q6.825 4.35 8.488 3.637Q10.15 2.925 12 2.925V1.9Q12 1.55 12.325 1.375Q12.65 1.2 12.925 1.475L15.425 3.975Q15.6 4.15 15.6 4.35Q15.6 4.55 15.425 4.725L12.925 7.225Q12.65 7.5 12.325 7.325Q12 7.15 12 6.8V5.775Q9.45 5.775 7.638 7.587Q5.825 9.4 5.825 11.95Q5.825 13.525 6.537 14.85Q7.25 16.175 8.5 17.025Q8.85 16.375 9.613 15.912Q10.375 15.45 11.35 15.325Q11.25 14.825 11.137 14.325Q11.025 13.825 10.875 13.4Q10.625 13.625 10.3 13.738Q9.975 13.85 9.625 13.85Q8.85 13.85 8.287 13.287Q7.725 12.725 7.725 11.95V11Q7.725 10.7 7.663 10.462Q7.6 10.225 7.5 10Q7.375 9.725 7.412 9.625Q7.45 9.525 7.65 9.55Q8 9.575 8.663 9.65Q9.325 9.725 9.95 9.988Q10.575 10.25 11.038 10.7Q11.5 11.15 11.525 11.95Q11.525 12.2 11.488 12.375Q11.45 12.55 11.35 12.725Q11.05 12.5 10.75 12.3Q10.45 12.1 10.1 11.95Q10.525 12.275 11.038 12.912Q11.55 13.55 12 14.425Q12.5 13.25 13.2 12.125Q13.9 11 14.85 10.05Q14.325 10.425 13.812 10.85Q13.3 11.275 12.825 11.775Q12.675 11.5 12.575 11.188Q12.475 10.875 12.475 10.525Q12.475 9.55 13.175 8.85Q13.875 8.15 14.85 8.15H15.8Q16.425 8.15 16.788 8.037Q17.15 7.925 17.35 7.625Q17.475 7.425 17.6 7.387Q17.725 7.35 17.725 7.625Q17.725 8.2 17.663 9.087Q17.6 9.975 17.325 10.825Q17.05 11.675 16.488 12.287Q15.925 12.9 14.85 12.9Q14.5 12.9 14.188 12.8Q13.875 12.7 13.6 12.55Q13.425 13 13.225 13.725Q13.025 14.45 12.9 15.325Q13.775 15.5 14.463 15.95Q15.15 16.4 15.5 17.025Q16.6 16.25 17.312 15.075Q18.025 13.9 18.15 12.5Q18.175 12.25 18.325 12.1Q18.475 11.95 18.725 11.95H20.475Q20.725 11.95 20.863 12.1Q21 12.25 20.975 12.5Q20.9 14.275 20.15 15.812Q19.4 17.35 18.188 18.5Q16.975 19.65 15.388 20.312Q13.8 20.975 12 20.975Z"/></svg>
